X: 38516
T: Stella's
R: waltz
M: 3/4
K: Gmajor
E/F/ G/A/ B/c/|:dBD|_Ec2|BGB,|CB>A|(G3|G3)|D3|
E/F/ G/A/ B/c/|dBD|_Ec2|BGB,|^CB>A|(G3|G)>AG|(E3|E2)D|
G2G|AG>A|B2B|cB>c|d3|F/G/ B/d/ e/f/|g3|e2 (3g/f/e/|dBD|
_Ec2|BGB,|CB>A|(G3|(G3)|1 G3)|E/F/ G/A/ B/c/:|2 (G3|G)ZD||
G2G|AG>F|G2G|AG>F|EB,B,|CD>C|(B,3|B,2)B,|GG>G|
AGA|BB>B|^cBc|dD/F/A/d/|c2 (3B/c/B/|(A3|A2)E|_EB,>A|
G2G|AD>c|B>AG|_e>=fg|g=f>_e|d3|
E/F/ G/A/ B/c/|dBD|_Ec2|BGB,|CB>A|(G3|(G3)|1 G3)|E/F/ G/A/ B/c/:|
[2 G3|E/F/ G/A/ B/c/|dBD|_Ec2|BGB,|CB>A|(G3|G3)||

